X:1
T:Title
%%score { ( 1 2 5 ) | ( 3 4 ) }
L:1/8
Q:1/4=100
M:3/4
K:G
V:1 treble nm="Grand Piano"
V:2 treble 
V:5 treble 
V:3 bass 
V:4 bass 
V:1
 z2 B2 G2 | D2 z2 z2 | E2 G2 [^DA]2 | [DB]6 | B2 A2 G2 | B2 A2 [B,EG]2 | E2- [Ec]2 E2 | D6 | %8
 z2 B2 G2 | D2 z2 z2 | E2 G2 [^Dc]2 | [DB]6 | B4 z2 | [=Fd]2 [Ec]2 B2 | A2 E2 F2 | [B,G]6 | %16
[Q:1/4=92] [DB][DB] [DA][CA] GD | F>E z2 D2 | [Ec][Ec] [EB][DB] AE | z2 F4[K:bass] | %20
 [=Fd][Fd] [Fc][Ec] B^F |[M:13/16] z/ z/ z G/-G-<G z/ z/ z |[M:3/4] z2 B4 | [B,G]6 |] %24
V:2
 D4 z2 | z B, ^C2 D2 | x6 | x6 | x6 | x6 | [CG]2 z2 z2 | x6 | D4 z2 | z B, ^C2 D2 | x6 | x6 | %12
 z2 ^D2 B2 | x6 | x6 | x6 | x6 | z2 E4 | x6 | G>F z2[K:bass] C,2 | x6 | %21
[M:13/16] [FA]3/2.G3/2C3/2FE |[M:3/4] D[DB] z2 z A | x6 |] %24
V:3
 [G,B,]4 [G,_B,^C]2 | .[G,B,]2 [E,G,_B,]2 [D,G,=B,]2 | C2 z2 z2 | [G,,G,]6 | z2 C2 [G,B,D]2 | %5
 [F,^D]2- [F,B,D]2 E,2 | z2 G,2 [E,G,C]2 | [G,B,]6 | [G,B,]4 [G,_B,^C]2 | %9
 .[G,B,]2 [E,G,_B,]2 [D,G,=B,]2 | [G,C]2 [CE]2 [C,G,]2 | [G,,G,]6 | [G,D]2 [F,A,]2 [E,G,E]2 | %13
 G,2- [C,G,]2 [D,G,D]2 | [E,^C]2- [E,A,C]2 [D,A,=C]2 | [G,,G,]6 | %16
 [G,,G,][G,,G,] [A,,F,][A,,F,] [B,,G,B,][B,,G,] | [C,G,D]>[C,G,C] [C,G,C]2 [B,,^G,]2 | %18
 [A,,A,][A,,A,] [B,,^G,][B,,G,] [C,A,C][^C,A,] | z2 [A,D]4 | %20
 [B,,G,][B,,G,] [C,G,][C,G,] [D,G,D][D,C] |[M:13/16] z/ z/ z [B,E] z/ z/ z/ z/ z/ z | %22
[M:3/4] [G,B,][G,,G,] [D,F,D]2 [D,F,]2 | [G,,G,]6 |] %24
V:4
 x6 | x6 | [C,G,]2- [C,G,E]2 [C,G,]2 | x6 | [G,D]4 z2 | A,2 z2 z2 | C,4 z2 | x6 | x6 | x6 | %10
 C,4 z2 | x6 | x6 | B,,2 z2 z2 | G,2 z2 z2 | x6 | x6 | x6 | x6 | [D,A,E]>[D,A,D] D,2 z2 | x6 | %21
[M:13/16] [^D,B,]>[E,B,E]E,-[E,A,]3/2[F,_B,C][G,A,C] |[M:3/4] x6 | x6 |] %24
V:5
 x6 | x6 | x6 | x6 | x6 | x6 | x6 | x6 | x6 | x6 | x6 | x6 | x6 | x6 | x6 | x6 | x6 | x6 | x6 | %19
 x4[K:bass] x2 | x6 |[M:13/16] x13/2 |[M:3/4] z2 z2 C2 | x6 |] %24

